!!!OTL: Fy, Let Us A' to the Bridal
!!!id: HA020
**kern
*clefF4
*k[f#c#]
*D:
*M9/8
{8A
=1
8.d
16e
8d
8d
8dd
8b
8a
8f#}
{8d
=2
4e
8d
8e
8f#
8a
4b}
{8dd
=3
8.d
16e
8d
8dd
8cc#
8b
8a
8f#}
{8d
=4
8.e
16f#
8g
8f#
8e
8d
4B}
{8dd
=5
8dd
8a
8dd
8.dd
16ee
8dd
8cc#
8b}
{8a
=6
8b
8a
8f#
8.dd
16ee
8ff#
4ee}
{8cc#
=7
8.dd
16ee
8ff#
8ee
8ff#
8dd
8cc#
8b}
{8a
=8
8b
8.dd
16b
8a
8f#
8d
4e}
{8A
=9
8.d
16e
8d
8d
8dd
8b
8a
8f#}
{8d
=10
4e
8d
8e
8f#
8a
4b}
{8dd
=11
8.d
16e
8d
8dd
8cc#
8b
8a
8f#}
{8d
=12
8.e
16f#
8g
8f#
8e
8d
4B}
==
*-
!!!minrhy: 16
!!!meter: 9/8  
!!!cut: Fy, Let Us A' to the Bridal
!!!key: HA020  16  D 9/8  
!!!bem: Unsicherheit bei Bestimmung der Tonart, e-moll?
!!!fog: a--b--aw-c--d--e--f--g--a--b--aw--c--
!! Haydn: Volksliedbearbeitungen, Bd1
